X:5
T: Yonkers Piper
C: BB
R: reel
Q: 1/8=350
M: 4/4
L: 1/8
K: G
A|"G"Bded BG (3GFG|"Em"edBA "C"GE (3E^DE|"G"gede "Am7"gaba|"G"gfgd "D"BA (3A^GA |
"G"BGdG "G"BG (3GFG|"Em"edBA "C"GE (3E^DE|"G"DEGD "Em"EGAB|"D7"(3cBA FA "G"G3 :|
A|"G"degd "Em"egde|"Am"a^gab "D7"afdc|"G"Bdgd "Em"e2 dB|"G"GABG "D"ADFA |
"G"dB"Am"cA "Em7"Bdeg|"Am"a^gab "D"afdf|"G"g2 dc "Em"BcdB|"D"ADFA "G"G3 :|
